iconography/32x32/Akka.svg

<svg width="32" height="32" viewBox="0 0 32 32" fill="none" xmlns="http://www.w3.org/2000/svg">
<path d="M8.87188 23.5245C8.67196 23.7278 8.45679 23.916 8.22682 24.0846C7.70537 24.4668 7.18319 24.8509 6.6569 25.2269C4.99217 26.4142 2.9541 26.1816 1.76063 24.6638C0.591647 23.1827 0.763017 21.1997 2.3237 19.8716C7.018 15.875 11.7551 11.9335 16.48 7.97364C17.1778 7.38609 17.9306 6.8475 18.5732 6.20486C19.6198 5.16441 20.8255 4.96244 22.2576 5.00528C22.9982 5.02976 23.4511 5.27457 23.6959 5.7642C25.6544 9.65673 27.7231 13.5003 29.4429 17.5091C27.8333 16.6706 26.2358 15.8628 24.3263 15.875C17.892 15.9049 13.1287 19.1949 8.87188 23.5245Z" stroke="#002E42" stroke-width="2" stroke-linecap="round"/>
<path d="M8.57251 23.8315C12.8996 19.3575 17.7408 15.9056 24.3263 15.8689C26.2293 15.8567 27.8223 16.659 29.4264 17.4945C29.4352 17.499 29.438 17.5102 29.4325 17.5185V17.5185C29.4313 17.5204 29.4304 17.5226 29.43 17.5249C29.4191 17.5893 29.4256 17.6424 29.4462 17.6865C29.5174 17.8381 29.6972 17.9131 29.7892 18.053C30.981 19.8653 31.3712 21.8093 30.6057 23.9233C29.8223 26.096 28.1759 26.6162 26.3337 25.2391C22.5881 22.4483 18.3222 22.2647 13.9278 22.7053C12.1039 22.8951 10.3535 23.4275 8.57251 23.8315Z" stroke="#002E42" stroke-width="2" stroke-linecap="round"/>
</svg>

<svg width="32" height="32" fill="none" xmlns="http://www.w3.org/2000/svg"><path d="M8.872 23.524a5.2 5.2 0 0 1-.645.56c-.522.383-1.044.767-1.57 1.143-1.665 1.187-3.703.955-4.896-.563-1.17-1.481-.998-3.464.563-4.792 4.694-3.997 9.431-7.938 14.156-11.898.698-.588 1.45-1.127 2.093-1.77 1.047-1.04 2.253-1.242 3.685-1.199.74.025 1.193.27 1.438.76 1.958 3.892 4.027 7.735 5.747 11.744-1.61-.838-3.207-1.646-5.117-1.634-6.434.03-11.197 3.32-15.454 7.65Z" stroke="#002E42" stroke-width="2" stroke-linecap="round"/><path d="M8.573 23.831c4.327-4.473 9.168-7.925 15.753-7.962 1.903-.012 3.496.79 5.1 1.625a.017.017 0 0 1 .007.024v0a.268.268 0 0 0 .014.168c.07.152.25.227.342.367 1.192 1.812 1.582 3.756.817 5.87-.784 2.173-2.43 2.693-4.272 1.316-3.746-2.79-8.012-2.974-12.406-2.534-1.824.19-3.575.723-5.355 1.127Z" stroke="#002E42" stroke-width="2" stroke-linecap="round"/></svg>
